images/icon/twitter_icon.svg

<svg width="26" height="20" viewBox="0 0 26 20" fill="none" xmlns="http://www.w3.org/2000/svg">
<path d="M25.7588 2.36717C24.8116 2.76883 23.7929 3.04029 22.7241 3.16259C23.8149 2.53743 24.6525 1.54801 25.0471 0.36927C24.0262 0.948099 22.8956 1.36795 21.6913 1.59426C20.7278 0.613218 19.3544 0 17.8345 0C14.9158 0 12.5503 2.26041 12.5503 5.04887C12.5503 5.44474 12.5966 5.83021 12.687 6.19951C8.29503 5.98923 4.40126 3.97853 1.79486 0.924148C1.33997 1.66952 1.07939 2.53671 1.07939 3.46218C1.07939 5.21411 2.01193 6.75926 3.43028 7.66504C2.56407 7.63916 1.74915 7.41194 1.03665 7.03349C1.03563 7.05477 1.03563 7.07575 1.03563 7.09687C1.03563 9.54362 2.8574 11.5838 5.27461 12.048C4.83157 12.1634 4.36482 12.2244 3.88283 12.2244C3.54197 12.2244 3.2115 12.1936 2.88828 12.1344C3.56119 14.1402 5.51239 15.6002 7.82521 15.641C6.01517 16.9955 3.73697 17.8022 1.26097 17.8022C0.834721 17.8022 0.413742 17.7783 0 17.7319C2.33958 19.1644 5.11689 20 8.10148 20C17.8212 20 23.1358 12.3067 23.1358 5.63404C23.1358 5.41524 23.1305 5.19793 23.1209 4.9814C24.1529 4.26896 25.0487 3.37993 25.7576 2.36721" fill="white"/>
</svg>

<svg width="26" height="20" fill="none" xmlns="http://www.w3.org/2000/svg"><path d="M25.759 2.367c-.947.402-1.966.673-3.035.796 1.09-.626 1.928-1.615 2.323-2.794-1.02.58-2.151.999-3.356 1.225A5.394 5.394 0 0017.834 0c-2.918 0-5.284 2.26-5.284 5.049 0 .396.047.781.137 1.15C8.295 5.99 4.401 3.98 1.795.925a4.853 4.853 0 00-.716 2.538c0 1.752.933 3.297 2.351 4.203a5.444 5.444 0 01-2.393-.632l-.001.064c0 2.447 1.821 4.487 4.239 4.951a5.517 5.517 0 01-2.387.086c.673 2.006 2.624 3.466 4.937 3.507a10.925 10.925 0 01-6.564 2.161c-.426 0-.847-.024-1.261-.07A15.473 15.473 0 008.101 20c9.72 0 15.035-7.693 15.035-14.366 0-.219-.005-.436-.015-.653a10.51 10.51 0 002.637-2.614" fill="#fff"/></svg>
